X:1
T: The Flat Foot Reel
C:
R:Reel
Q: 232
K:G
M:4/4
L:1/8
|:Gc|BG AG BG AG|ce dB AG FG|BG AG BG AG|ce dc G2 Gc|
BG AG BG AG|ce dB A3c|Bd ef gf ge|dc AF G2 G2|
g8|fg af bf ed|Bd ef gf ge|dc Ac BG FG|
Bd ef gf ge|fg ag bg ed|g8|dc AF G2:|
